X:341
T: AUS DEINEN BLAUEN AUGEN STRAHLET LIEBE
N: B0403
O: Europa, Mitteleuropa, Deutschland, Hannover; Frankreich, Elsass
R: Liebes - Lied, Liebes - Lust
M: 4/4
L: 1/8
K: Bb
DDE | F3FdcBD | FEE2z
EEE | c3BAGFE | EDD2z
BBB | BGG2zBAG | GFF2z
BFD | C3GFFGA | B2d2z
BBB | BGG2zBAG | GFF2z
BFD | C3GFFGA | B2z3

@@@ Tune index: 2144
